!!!!SEGMENT: pl-kk--kk-i-3--005-001_anonim--officium-de-assumptione-de-bmv-gaudeamus-omnes-in-domino.krn
!!!cenid: 15xx:570
!!!COM: Anonim
!!!COM-rismid: pe30004985
!!!CDT:
!!!CNT:
!!!OPR: Officium de Assumptione de BMV
!!!OTL: Gaudeamus omnes in Domino
!!!OMV: 001
!!!PDT:
!!!AGN:
!!!SMS-siglum: PL-Kk
!!!SMS-shelfmark: Kk.I.3
!!!SMS-shelfwork: 005-001 M
!!!SMS-variant:
!!!SMS-altvar:
!!!NIFC-rismid: 1001145497
!!!URL-scan: http://repozytorium.nifc.pl/skany/pl-kk-nut--i-3
!!!ONB-nifc: UWAGA: Discantus (s. 9r-10v, skan 0011-0013), Tenor (s. 8r-9r, skan 0180-0181), Bassus (s. 6r-7r, skan 0309-0310). Następna część: Proptem veritam
!!!key:
**kern	**text	**kern	**text	**kern	**text
*part3	*part3	*part2	*part2	*part1	*part1
*staff3	*staff3	*staff2	*staff2	*staff1	*staff1
*I"[Bassus]	*	*I"[Tenor]	*	*I"[Discantus]	*
*I'[B]	*	*I'[T]	*	*I'[S]	*
*Ibass	*	*Itenor	*	*Isoprn	*
*ICvox	*	*ICvox	*	*ICvox	*
*clefF4	*	*clefC4	*	*clefC4	*
*k[]	*	*k[]	*	*k[]	*
*F:	*	*F:	*	*F:	*
*M2/1	*	*M2/1	*	*M2/1	*
*met(C|)	*	*met(C|)	*	*met(C|)	*
=1-	=1-	=1-	=1-	=1-	=1-
1G	Gau-	1C	Gau-	1c	Gau-
1F	-de-	1D	-de-	1A	-de-
=2-	=2-	=2-	=2-	=2-	=2-
2D/	-a-	1D	-a-	1d	-a-
2BB/	.	.	.	.	.
2AA/	.	1A	.	2c/	.
2FF/	.	.	.	1f\	.
=3-	=3-	=3-	=3-	=3-	=3-
1C	.	1c	.	.	.
*	*	*	*	*2\right	*
.	.	.	.	2e\	.
!!LO:TX:t=P:problem:oddech/cezura na różnej wysokości:global
2FF,/	-mus	1A	mus	1f	-mus
1F\	om-	.	.	.	.
=4-	=4-	=4-	=4-	=4-	=4-
.	.	1A	om-	2c/	om-
2D,/	-nes	.	.	2d/	.
2E/	.	1G	-nes	2B/	.
2C/	.	.	.	1c\	.
=5-	=5-	=5-	=5-	=5-	=5-
*	*	*lig	*	*	*
1F	.	1A	.	.	.
.	.	.	.	1d	.
*custos:E	*	*	*	*	*
=-	=-	=-	=-	=-	=-
!LO:LB:g=original	!	!	!	!	!
1E	.	1G	.	.	.
.	.	.	.	2c/	.
*	*	*Xlig	*	*custos:d	*
=6-	=6-	=6-	=6-	=6-	=6-
!	!	!	!	!LO:LB:g=original	!
1D	in	1F	in	1d	-nes
2BB/	.	1G	.	2d\	in
1C/	.	.	.	1e\	do-
*	*	*custos:G	*	*	*
=7-	=7-	=7-	=7-	=7-	=7-
!	!	!LO:LB:g=original	!	!	!
.	.	1G	do-	.	.
2GG/	do-	.	.	2d\	.
1G	.	1B	.	1d	.
=8-	=8-	=8-	=8-	=8-	=8-
*	*	*lig	*	*	*
1C	.	1c	.	1e	.
2D/	.	1A	.	2d\	.
2C/	.	.	.	2e\	.
*	*	*Xlig	*	*	*
=9-	=9-	=9-	=9-	=9-	=9-
*	*	*lig	*	*	*
1D	-[mi]-	1A	-mi-	1d,	-mi-
2GG/	.	1G	.	2B/	.
2C/	.	.	.	1c\	.
*	*	*Xlig	*	*	*
=10-	=10-	=10-	=10-	=10-	=10-
2AA/	.	1A	.	.	.
2FF/	.	.	.	2A/	.
*	*	*lig	*	*	*
1GG	.	1B	.	2d\	.
.	.	.	.	2G/	.
=11-	=11-	=11-	=11-	=11-	=11-
2FF/	.	1A	.	2c/	.
2F\	.	.	.	2A/	.
*2\right	*	*	*	*	*
*	*	*Xlig	*	*	*
2E/	.	1B	.	2G/	.
2D/	.	.	.	2F/	.
*custos:C	*	*	*	*custos:G	*
=12-	=12-	=12-	=12-	=12-	=12-
!	!	!	!	!LO:LB:g=original	!
*	*	*lig	*	*	*
!LO:LB:g=original	!	!	!	!	!
1C	-[no]	1c	-no	1G	-no
1D	.	1A	.	2F/	.
.	.	.	.	1D/	di-
*	*	*Xlig	*	*	*
=13-	=13-	=13-	=13-	=13-	=13-
1AA	di-	1A	di-	.	.
.	.	.	.	2C/	-em
1D	-em	1F	-em	2D/	.
.	.	.	.	1d\	fe-
=14-	=14-	=14-	=14-	=14-	=14-
2GG/	fe-	1G	fe-	.	.
2C/	.	.	.	2c/	.
*	*	*lig	*	*	*
2BB/	.	1G	-ſtum	2d\	.
2C/	.	.	.	1c\	.
=15-	=15-	=15-	=15-	=15-	=15-
1D	.	1F	.	.	.
.	.	.	.	2B/	.
1C	.	1E	.	1c	.
*	*	*Xlig	*	*	*
=16-	=16-	=16-	=16-	=16-	=16-
1FF	-ſtu(m)	1F	.	1A	-ſtum
*	*	*custos:D	*	*	*
=-	=-	=-	=-	=-	=-
!	!	!LO:LB:g=original	!	!	!
1BB-X	cel-	1D	cel-	1d	cel-
=17-	=17-	=17-	=17-	=17-	=17-
1GG	le-	1G	.	2d\	-le-
.	.	.	.	1B-X	.
*	*	*lig	*	*	*
1GG	.	1G	-le-	.	.
.	.	.	.	2B-/	.
=18-	=18-	=18-	=18-	=18-	=18-
1D	.	1F	.	2A/	.
*	*	*	*	*custos:d	*
=-	=-	=-	=-	=-	=-
!	!	!	!	!LO:LB:g=original	!
.	.	.	.	1d	.
1AA	.	1E	.	.	.
.	.	.	.	2c\	.
*	*	*Xlig	*	*	*
=19-	=19-	=19-	=19-	=19-	=19-
1D	.	1F	.	0d	-bran-
*custos:BB	*	*	*	*	*
=-	=-	=-	=-	=-	=-
!LO:LB:g=original	!	!	!	!	!
1BBny	-bran-	1D	-bran-	.	.
=20-	=20-	=20-	=20-	=20-	=20-
*	*	*lig	*	*	*
1C,	-tes	1G	-tes	1e	-tes
1FF	.	1F	.	1f	.
*	*	*Xlig	*	*	*
=21-	=21-	=21-	=21-	=21-	=21-
!LO:SIC:v:s=1BB-	!	!	!	!	!
1BB	in	1F	in	1d	in
1GG	ho-	1G	ho-	2d\	ho-
.	.	.	.	1B-X\	-no-
=22-	=22-	=22-	=22-	=22-	=22-
1GG	-no-	1G	-no-	.	.
.	.	.	.	2B-yX/	.
2FF/	.	1A	.	2A/	.
1F\	.	.	.	2F/	.
=23-	=23-	=23-	=23-	=23-	=23-
*	*	*lig	*	*	*
.	.	1c	.	1G	.
2E/	.	.	.	.	.
2D/	.	1A	.	2D/	.
2F/	.	.	.	1d\	.
*	*	*Xlig	*	*	*
=24-	=24-	=24-	=24-	=24-	=24-
1E	.	1G	-rem	.	.
.	.	.	.	2c/	.
*	*	*lig	*	*	*
1D	.	1A	.	0d	-rem
=25-	=25-	=25-	=25-	=25-	=25-
1GG	-rem	1G	.	.	.
*	*	*Xlig	*	*	*
1D	Ma-	1F	Ma-	1d	Ma-
*	*	*custos:A	*	*	*
=26-	=26-	=26-	=26-	=26-	=26-
!	!	!LO:LB:g=original	!	!	!
1F	-ri-	1A	-ri-	1c	-ri-
*	*	*	*	*custos:f	*
=-	=-	=-	=-	=-	=-
!	!	!	!	!LO:LB:g=original	!
1F	-e	1A	-e	1f	-e
=27-	=27-	=27-	=27-	=27-	=27-
1A	.	1c	.	2e\	.
.	.	.	.	1c	.
1G	.	1d	.	.	.
.	.	.	.	2Bny/	.
=28-	=28-	=28-	=28-	=28-	=28-
1F	vir-	1A	Vir-	1c	vir-
*custos:D	*	*	*	*	*
=-	=-	=-	=-	=-	=-
2D/	-gi-	1A	-gi-	2d\	-gi-
2F/	.	.	.	2c\	.
=29-	=29-	=29-	=29-	=29-	=29-
1E	.	1B	.	1e	.
*	*	*lig	*	*	*
1AA	.	1c	.	1e	.
=30-	=30-	=30-	=30-	=30-	=30-
1D	.	1A	.	1f	.
*	*	*Xlig	*	*	*
1D	-nis	1A	-nis	1f	-nis
=31-	=31-	=31-	=31-	=31-	=31-
0C	de	1F	de	1f	de
.	.	1G	.	1e	.
=32-	=32-	=32-	=32-	=32-	=32-
0C	cu-	1F	cu-	2d,\	.
.	.	.	.	1f	cu-
.	.	1G	.	.	.
.	.	.	.	2e\	.
=33-	=33-	=33-	=33-	=33-	=33-
2FF/	-i(us)	1F	-ius	1f	-ius
2F/	aſ-	.	.	.	.
*	*	*custos:F	*	*	*
=-	=-	=-	=-	=-	=-
!	!	!LO:LB:g=original	!	!	!
2D/	.	1F	aſ-	2f\	aſ-
*	*	*	*	*custos:d	*
=-	=-	=-	=-	=-	=-
!LO:SIC:v:s=1BB-	!	!	!	!LO:PB:g=original	!
1BB/	-ſum-	.	.	1d\	-sum-
=34-	=34-	=34-	=34-	=34-	=34-
.	.	1F	-ſum-	.	.
2FF/	.	.	.	2c/	.
!LO:SIC:v:s=2BB-/	!	!	!	!LO:SIC:v:s=1B-	!
2BB/	-ci-	1G	-pci-	1B	-ci-
2AA/	.	.	.	.	.
=35-	=35-	=35-	=35-	=35-	=35-
!	!	!	!	!LO:SIC:v:s=1B-	!
1GG	.	1G	-o-	1B	-o-
1FF	.	1A	.	2A/	.
.	.	.	.	1F/	.
=36-	=36-	=36-	=36-	=36-	=36-
*	*	*lig	*	*	*
1C	-o-	1c	.	.	.
.	.	.	.	2E/	.
2D/	.	1A	.	2F/	.
2F/	.	.	.	2D/	.
*	*	*Xlig	*	*	*
=37-	=37-	=37-	=37-	=37-	=37-
1E	.	1G	-ne	2E/	.
.	.	.	.	1G	.
*custos:D	*	*lig	*	*	*
=-	=-	=-	=-	=-	=-
!LO:LB:g=original	!	!	!	!	!
1D	-[ne]	1A	.	.	.
.	.	.	.	2F/	.
=38-	=38-	=38-	=38-	=38-	=38-
*lig	*	*	*	*	*
1GG	gau-	1G	.	1G	-ne
*	*	*Xlig	*	*	*
1D	.	1F	gau-	2A/	gau-
.	.	.	.	2B/	.
*Xlig	*	*	*	*	*
=39-	=39-	=39-	=39-	=39-	=39-
1C	.	1G	.	1c	.
2FF/	-dent	1F	-dent	2c/	-dent
!LO:SIC:v:s=1BB-	!	!	!	!	!
1BB/	an-	.	.	1d\	.
=40-	=40-	=40-	=40-	=40-	=40-
.	.	1F	an-	.	.
2AA/	.	.	.	1f	an-
=-	=-	=-	=-	=-	=-
1GG	.	1G	.	.	.
*	*	*	*	*custos:e	*
!	!	!	!	!LO:LB:g=original	!
.	.	.	.	2e\	.
=41-	=41-	=41-	=41-	=41-	=41-
*	*	*lig	*	*	*
2FF/	.	1A	.	1f	.
1F	.	.	.	.	.
.	.	1G	.	2d\	.
2E/	.	.	.	2e\	.
*	*	*Xlig	*	*	*
=42-	=42-	=42-	=42-	=42-	=42-
1F	.	1A	.	2c\	.
.	.	.	.	1d	ge-
*	*	*custos:G	*	*	*
=-	=-	=-	=-	=-	=-
*	*	*lig	*	*	*
!	!	!LO:PB:g=original	!	!	!
1C	-ge-	1G	-ge-	.	.
.	.	.	.	1c\	.
=43-	=43-	=43-	=43-	=43-	=43-
1D	.	1F	.	.	.
.	.	.	.	2B/	.
1C	.	1E	.	1c	.
*	*	*Xlig	*	*	*
=44-	=44-	=44-	=44-	=44-	=44-
1D	.	1F	.	2A/	.
.	.	.	.	1d	.
*	*	*lig	*	*	*
2GG/	.	1G	.	.	.
*custos:C	*	*	*	*	*
=-	=-	=-	=-	=-	=-
!LO:LB:g=original	!	!	!	!	!
2C/	.	.	.	1c\	.
=45-	=45-	=45-	=45-	=45-	=45-
2AA/	.	1F	.	.	.
2BB/	.	.	.	1d	.
!LO:SIC:v:s=2BB-/	!	!	!	!	!
*	*	*Xlig	*	*	*
2GG/	.	1G	.	.	.
1C/	li	.	.	1e\	.
=46-	=46-	=46-	=46-	=46-	=46-
*	*	*lig	*	*	*
.	.	1G	-li	.	.
2C/	.	.	.	2e\	-li
1FF	.	1F	.	1f	.
*	*	*Xlig	*	*	*
=47-	=47-	=47-	=47-	=47-	=47-
1F	et	1F	et	1c	et
2C/	col-	1G	co-	2c/	col-
*	*	*	*	*custos:B	*
=-	=-	=-	=-	=-	=-
!	!	!	!	!LO:LB:g=original	!
1E\	.	.	.	1Bn\	-lau-
=48-	=48-	=48-	=48-	=48-	=48-
.	.	1G	-lau-	.	.
2E/	.	.	.	2c\	.
1D	.	1A	.	1d	.
=49-	=49-	=49-	=49-	=49-	=49-
*	*	*lig	*	*	*
1C	.	1c	.	1e	.
1D	-lau-	1A	.	0d	-da(n)t
*	*	*Xlig	*	*	*
=50-	=50-	=50-	=50-	=50-	=50-
*	*	*lig	*	*	*
1D	-da(n)t	1A	-dant	.	.
1GG	.	1G	.	1d	fi-
*	*	*Xlig	*	*	*
=51-	=51-	=51-	=51-	=51-	=51-
1D	fi-	1F	fi-	1d	.
*custos:C	*	*	*	*	*
=-	=-	=-	=-	=-	=-
!LO:LB:g=original	!	!	!	!	!
1C	.	1G	.	1e	.
*	*	*custos:F	*	*	*
=52-	=52-	=52-	=52-	=52-	=52-
!	!	!LO:LB:g=original	!	!	!
1FF	li-	1F	-li-	1f	-li-
2FF/	-um	0F	-um	1f	-us
1F\	.	.	.	.	.
=53-	=53-	=53-	=53-	=53-	=53-
.	.	.	.	1f	de-
2D/	.	.	.	.	.
1E	.	1G	.	1e	.
=54-	=54-	=54-	=54-	=54-	=54-
*	*	*lig	*	*	*
2AA/	.	1A	.	2c\	.
1D	.	.	.	1d	.
.	.	1F	.	.	.
2D/	.	.	.	2B/	.
*	*	*Xlig	*	*	*
=55-	=55-	=55-	=55-	=55-	=55-
1C	.	1G	.	1c	.
*	*	*lig	*	*	*
1FF	.	1F	de-	1A	.
=56-	=56-	=56-	=56-	=56-	=56-
1C	.	1E	.	1G	.
1F	de-	1D	.	1F	.
*	*	*Xlig	*	*	*
=57-	=57-	=57-	=57-	=57-	=57-
*	*	*lig	*	*lig	*
2F/	.	1F	.	1A	.
1D	.	.	.	.	.
.	.	1E	.	1c	.
2C/	.	.	.	.	.
*	*	*Xlig	*	*Xlig	*
*	*	*	*	*custos:A	*
=58-	=58-	=58-	=58-	=58-	=58-
!	!	!	!	!LO:LB:g=original	!
1D	.	1F	.	2A/	.
.	.	.	.	2B/	.
*custos:AA	*	*	*	*	*
=-	=-	=-	=-	=-	=-
!LO:LB:g=original	!	!	!	!	!
0AA	.	0E	.	2c/	.
.	.	.	.	1d\	.
=59-	=59-	=59-	=59-	=59-	=59-
.	.	.	.	.	.
.	.	.	.	2c\	.
!	!	!	!	!LO:N:vis=0	!
1D	.	0.D	-i	0.d;<	-i
*	*	*custos:F	*	*	*
=60-	=60-	=60-	=60-	=60-	=60-
!LO:N:vis=1	!	!	!	!	!
0D;	-[i]	.	.	.	.
=61||-	=61||-	=61||-	=61||-	=61||-	=61||-
!	!	!LO:LB:g=original	!	!	!
1F	E-	1F	E-	1f	E-
*	*	*	*	*lig	*
1C	-xal-	1G	-xal-	1e	-xal-
=62-	=62-	=62-	=62-	=62-	=62-
1FF	.	1A	.	1c	.
*	*	*	*	*Xlig	*
2FF/	-ta-	1A	-ta-	1c	-ta-
1F\	-ta	.	.	.	.
=63-	=63-	=63-	=63-	=63-	=63-
.	.	1A	-ta	2c\	-ta
1D	es	.	.	1f	es
.	.	1A	eſt	.	.
2C/	.	.	.	2e\	.
=64-	=64-	=64-	=64-	=64-	=64-
2D/	.	1A	san-	2d\	san-
2AA/	.	.	.	2c\	-cta
2D/	san-	1A	-cta	2d\	de-
2C/	.	.	.	2e\	.
=65-	=65-	=65-	=65-	=65-	=65-
2AA/	-cta	1A	de-	2c/	.
*custos:FF	*	*	*	*custos:f	*
=-	=-	=-	=-	=-	=-
*	*	*	*	*clefC3	*
!LO:LB:g=original	!	!	!	!LO:LB:g=original	!
2FF/	.	.	.	1f	.
1C	.	1c	.	.	.
.	.	.	.	2e/	.
=66-	=66-	=66-	=66-	=66-	=66-
2FF/	.	1A	-i	1f	-i
1F	de-	.	.	.	.
.	.	1A	ge-	1f	ge-
2D/	-i	.	.	.	.
=67-	=67-	=67-	=67-	=67-	=67-
*	*	*lig	*	*	*
2A\	ge-	1A	-ni-	2e\	-ni-
2F\	.	.	.	2f\	.
1E	.	1G	.	1g	.
*	*	*Xlig	*	*	*
*	*	*custos:G	*	*	*
=68-	=68-	=68-	=68-	=68-	=68-
!	!	!LO:LB:g=original	!	!	!
2C/	.	1G	-trix	2e\	.
2BB/	-ni-	.	.	2d\	.
1AA	-trix	1A	.	1c	-trix
=69-	=69-	=69-	=69-	=69-	=69-
*	*	*lig	*	*	*
1C	su-	1G	su-	1e	su-
1D	.	1F	.	2d/	.
.	.	.	.	1f\	.
*	*	*Xlig	*	*	*
=70-	=70-	=70-	=70-	=70-	=70-
1C	-per	1G	-per	.	.
.	.	.	.	2e\	.
1FF	cho-	1A	.	1f	-per
=71-	=71-	=71-	=71-	=71-	=71-
1FF	.	1A	cho-	1c	cho-
2FF/	-ros	1A,	-ros	1c	-ros
1F\	an-	.	.	.	.
=72-	=72-	=72-	=72-	=72-	=72-
.	.	1A	an-	2c/	an-
2D/	-ge-	.	.	2f\	-ge-
*custos:A	*	*	*	*	*
=-	=-	=-	=-	=-	=-
!LO:PB:g=original	!	!	!	!	!
1A	-lo-	1A	-ge-	1e,	.
*	*	*	*	*custos:d	*
=73-	=73-	=73-	=73-	=73-	=73-
!	!	!	!	!LO:PB:g=original	!
1D	-ru(m)	1A	-lo-	2d/	lo-
.	.	.	.	1f	.
1F	ad	1A,	-rum	.	.
.	.	.	.	2c/	-r(um)
=74-	=74-	=74-	=74-	=74-	=74-
2D/	ce-	1A	ad	2d/	ad
2C/	-le-	.	.	2e/	.
1D	.	1A	cel-	1f	ce-
*	*	*custos:A	*	*	*
=75-	=75-	=75-	=75-	=75-	=75-
!	!	!LO:LB:g=original	!	!	!
1C	.	1A	-le-	1e	-le-
1BB	.	1B	.	1d	.
=76-	=76-	=76-	=76-	=76-	=76-
*	*	*lig	*	*	*
2AA/	sti-	1c	.	1c	.
1FF	-a	.	.	.	.
.	.	1A	.	2c/	.
2FF/	.	.	.	1f\	.
*	*	*Xlig	*	*	*
=77-	=77-	=77-	=77-	=77-	=77-
1C	.	1G	-sti-	.	.
.	.	.	.	2e/	-sti-
2D/	.	1F	-a	1f,	-a
!LO:SIC:v:s=1BB-	!	!	!	!	!
1BB/	.	.	.	.	.
=78-	=78-	=78-	=78-	=78-	=78-
*	*	*lig	*	*	*
.	.	1F	re-	2f/	re-
2FF/	re-	.	.	1d	.
2GG/	.	1E	.	.	.
2AA/	.	.	.	2c/	.
*	*	*Xlig	*	*	*
=79-	=79-	=79-	=79-	=79-	=79-
!LO:SIC:v:s=1BB-	!	!LO:N:vis=0	!	!	!
1BB	.	00D	-gna	1B-X	.
*custos:GG	*	*	*	*	*
=-	=-	=-	=-	=-	=-
!LO:LB:g=original	!	!	!	!	!
1GG	.	.	.	1B-	.
=80-	=80-	=80-	=80-	=80-	=80-
!	!	!	!	!LO:N:vis=1	!
0D;	-[gna]	.	.	0A;	-gna
*	*	*	*	*custos:c	*
=81||-	=81||-	=81||-	=81||-	=81||-	=81||-
*	*	*	*	*clefC4	*
!	!	!	!	!LO:LB:g=original	!
1F	glo-	1F	Glo-	1c	glo-
*lig	*	*	*	*	*
1C	ri-	1G	-ri-	0c	-ri-
=82-	=82-	=82-	=82-	=82-	=82-
1FF	.	1A	.	.	.
*Xlig	*	*	*	*	*
1FF	-a	1A	-a	1c	-a
=83-	=83-	=83-	=83-	=83-	=83-
1F	pa-	1A	pa-	1A	Pa-
*	*	*custos:A	*	*	*
=-	=-	=-	=-	=-	=-
!	!	!LO:PB:g=original	!	!	!
2F\	-tri	1A	-tri	2A/	-tri
1D\	et	.	.	1F/	et
=84-	=84-	=84-	=84-	=84-	=84-
.	.	1A	et	.	.
2C/	fi-	.	.	1E	fi-
1D	.	1A	fi-	.	.
.	.	.	.	2D/	.
=85-	=85-	=85-	=85-	=85-	=85-
1AA	-li-	1A	-li-	2E/	-li-
.	.	.	.	2F/	.
1AA	-o	1A,	-o	1E	-o
=86-	=86-	=86-	=86-	=86-	=86-
1D	et	1A	et	2F/	et
.	.	.	.	2D/	.
2C/	spi-	1A	spi-	2E/	spi-
*custos:AA	*	*	*	*	*
=-	=-	=-	=-	=-	=-
!LO:LB:g=original	!	!	!	!	!
2AA/	.	.	.	1F/	-ri-
=87-	=87-	=87-	=87-	=87-	=87-
1D	-ri-	1A	-ri-	.	.
.	.	.	.	2D/	.
1C	.	1c	.	0G	.
=88-	=88-	=88-	=88-	=88-	=88-
1FF	-tu-	1A	-tu-	.	.
1FF	-i	1A,	-i	1C	-tu-
=89-	=89-	=89-	=89-	=89-	=89-
*	*	*lig	*	*	*
1FF	san-	1A	san-	2C/	-i
*	*	*	*	*custos:D	*
=-	=-	=-	=-	=-	=-
!	!	!	!	!LO:LB:g=original	!
.	.	.	.	2D/	san-
2C/	.	1G	.	2E/	.
2GG/	.	.	.	1F/	.
*	*	*Xlig	*	*	*
=90-	=90-	=90-	=90-	=90-	=90-
1C	.	1G	-cto	.	.
.	.	.	.	2E/	.
1FF	-cto	1A	.	1F	-cto
*	*	*custos:G	*	*	*
=91-	=91-	=91-	=91-	=91-	=91-
*	*	*lig	*	*lig	*
!	!	!LO:LB:g=original	!	!	!
1C	si-	1G	si-	1c	si-
1D	.	1F	.	1A	.
*	*	*Xlig	*	*Xlig	*
=92-	=92-	=92-	=92-	=92-	=92-
!	!	!	!	!LO:SIC:v:s=2B-\	!
2GG/	-cut	1G	-cut	2Bny\	-cut
1C	.	.	.	1E	e-
.	.	1A	.	.	.
2C/	.	.	.	2E/	.
=93-	=93-	=93-	=93-	=93-	=93-
1FF	e-	1A	e-	1F	.
1FF	-rat	1A,	-rat	1F	-rat
=94-	=94-	=94-	=94-	=94-	=94-
2FF/	in	1A	in	2F/	in
*custos:F	*	*	*	*	*
=-	=-	=-	=-	=-	=-
!LO:LB:g=original	!	!	!	!	!
1F	prin-	.	.	1D	prin-
.	.	1A	prin-	.	.
2E/	-ci-	.	.	2C/	.
=95-	=95-	=95-	=95-	=95-	=95-
2D/	.	1A,	-ci-	2D/	-ci-
2C/	.	.	.	2E/	.
2D/	.	1A	-pi-	1F	-pi-
2F\	-pi-	.	.	.	.
=96-	=96-	=96-	=96-	=96-	=96-
2E/	.	1A,	-o	2C/	-o
*	*	*	*	*custos:F	*
=-	=-	=-	=-	=-	=-
!	!	!	!	!LO:LB:g=o	!
1D	-o	.	.	1F	et
.	.	1A	et	.	.
1F\	et	.	.	2D/	nu(n)c
=97-	=97-	=97-	=97-	=97-	=97-
.	.	1A	nu(n)c	1F	.
2D/	nu(n)c	.	.	.	.
1E	.	1c	.	1G	.
*	*	*custos:A	*	*	*
=98-	=98-	=98-	=98-	=98-	=98-
*lig	*	*	*	*	*
!	!	!LO:LB:g=original	!	!	!
1D	et	1A	et	1F	et
*	*	*lig	*	*	*
1F	.	1A	sem-	2F/	sem-
.	.	.	.	2D/	.
*Xlig	*	*	*	*	*
=99-	=99-	=99-	=99-	=99-	=99-
2C/	sem-	1G	.	2E/	.
2D/	.	.	.	2F/	.
*	*	*Xlig	*	*	*
1E	.	1G	-per	2G/	.
.	.	.	.	2E/	-per
=100-	=100-	=100-	=100-	=100-	=100-
1D	-per	1A,	.	1F	.
*	*	*lig	*	*	*
2GG/	et	1G	et	2G/	et
2C/	.	.	.	2E/	.
=101-	=101-	=101-	=101-	=101-	=101-
2AA/	in	1F	.	2F/	in
*custos:D	*	*Xlig	*	*	*
=-	=-	=-	=-	=-	=-
!LO:LB:g=original	!	!	!	!	!
2D/	se-	.	.	2D/	.
2GG/	.	1G	in	2G/	.
2C/	-cu-	.	.	2E/	.
*	*	*	*	*custos:F	*
=102-	=102-	=102-	=102-	=102-	=102-
!	!	!	!	!LO:LB:g=original	!
2AA/	.	1A	.	2F/	.
2D/	.	.	.	2D/	.
2C/	.	1A	se-	2E/	se-
1F\	.	.	.	2A/	.
=103-	=103-	=103-	=103-	=103-	=103-
.	.	1A	-cu-	2D/	.
2D/	.	.	.	1d	-cu-
1A	-la	1A,	-la	.	.
.	.	.	.	2c/	-la
=104-	=104-	=104-	=104-	=104-	=104-
1D	se-	1A	se-	1d	se-
1F	-cu-	1A	-cu-	1c	-cu-
=105-	=105-	=105-	=105-	=105-	=105-
*lig	*	*	*	*	*
1G	-lo-	1B	.	2B/	.
.	.	.	.	2G/	.
*	*	*lig	*	*	*
1C	.	1c	.	2E/	.
.	.	.	.	1G/	.
*Xlig	*	*	*	*	*
=106-	=106-	=106-	=106-	=106-	=106-
1D	-r(um)	1A	.	.	.
.	.	.	.	2F/	.
*	*	*Xlig	*	*	*
*	*	*custos:G	*	*	*
=-	=-	=-	=-	=-	=-
!	!	!LO:LB:g=original	!	!	!
1GG	A-	1G	-lo-	1G	-lo-
=107-	=107-	=107-	=107-	=107-	=107-
!LO:SIC:v:s=1BB-	!	!	!	!	!
1BB	.	1F	-r(um)	1D	-rum
*	*	*lig	*	*	*
1D	.	1F	A-	1F	.
=108-	=108-	=108-	=108-	=108-	=108-
1AA	.	1E	.	1A	A-
*	*	*Xlig	*	*	*
*	*	*Xtuplet	*	*	*
2FF/	.	1%5Dl	-men	2A/	.
*	*	*	*	*custos:B	*
=-	=-	=-	=-	=-	=-
!	!	!	!	!LO:PB:g=original	!
!	!	!	!	!LO:SIC:v:s=1B-	!
1GG/	.	.	.	1B\	.
=109-	=109-	=109-	=109-	=109-	=109-
.	.	.	.	.	.
2AA/	.	.	.	2A/	.
!LO:SIC:v:s=2BB-\	!	!	!	!	!
2BB/	.	.	.	1G	.
2C/	.	.	.	.	.
=110-	=110-	=110-	=110-	=110-	=110-
!LO:N:vis=1	!	!	!	!LO:N:vis=1	!
0D;	-me(n)	.	.	0F;	-[men]
*	*	*	*	*custos:c	*
==	==	==	==	==	==
*-	*-	*-	*-	*-	*-
!!!system-decoration: [(s1,s2,s3)]
!!!RDF**kern: l = terminal long
!!!RDF**kern: > = above
!!!RDF**kern: < = below
!!!ENC: Katarzyna Serwa
!!!END: 2021-12-29
!!!ENC: Andrzej Kubiczek
!!!END: 2021-12-24
